!!!COM: Béla Bartók
!!!OTL: [T345_Bar-w45p2m16-24]
**kern	**dynam	**kern	**dynam	**kern	**dynam	**kern	**dynam	**kern	**dynam
*grp:A	*grp:A	*grp:B	*grp:B	*grp:B	*grp:B	*grp:A	*grp:A	*grp:B	*grp:B
*part5	*part5	*part4	*	*part3	*	*part2	*	*part1	*
*staff5	*	*staff4	*	*staff3	*	*staff2	*	*staff1	*
*I"Contrabass 1. 2.	*	*I"Violoncello 1. 2.	*	*I"Viola 1. 2.	*	*I"Violin 3. 4.	*	*I"Violin 2.	*
*I'Cb.	*	*I'Vc.	*	*I'Vla.	*	*I'Vln. II	*	*I'Vln. I	*
*clefF4	*	*clefF4	*	*clefC3	*	*clefG2	*	*clefG2	*
*ITrd7c12	*	*	*	*	*	*	*	*	*
*k[]	*	*k[]	*	*k[]	*	*k[]	*	*k[]	*
*M7/8	*	*M7/8	*	*M7/8	*	*M7/8	*	*M7/8	*
=16	=16	=16	=16	=16	=16	=16	=16	=16	=16
!	!	!	!	!	!	!	!	!LO:TX:t=[Andante tranquillo, [eighth]=116-112]	!
!	!	!LO:TX:a:t=[con sord.]	!LO:DY:ed=brack	!LO:TX:a:t=[con sord.]	!LO:DY:ed=brack	!LO:TX:a:t=[con sord.]	!LO:DY:ed=brack	!LO:TX:a:t=[con sord.]	!LO:DY:ed=brack
2ryy	.	8A-X])j	pp	([2fn	pp	4.ryy	4ryy	4ee~	pp
.	.	(4G	.	.	.	.	.	.	.
.	.	.	.	.	.	.	.	8dd#XL	.
.	.	8An	.	.	.	8ryy	.	8cc#XJ	.
=-	=-	=-	=-	=-	=-	=-	=-	=:	=:
8ryy	.	4.F#X)	.	8f]	.	4.ryy	.	8ddn~	.
8ryy	.	.	.	4e)	.	.	.	4ccn)j	.
!LO:TX:a:rj:t=con sord.	!	!	!	!	!	!	!	!	!
8ryy	4ryy	.	.	.	.	.	.	.	.
=17	=17	=17	=17	=17	=17	=17	=17	=17	=17
*M9/8	*	*M9/8	*	*M9/8	*	*M9/8	*	*M9/8	*
8ryy	.	(4Fn	.	(>4c	.	4ryy	.	(8b	.
4ryy	.	.	.	.	.	.	.	[4g	.
.	.	8E	.	8A	.	8ryy	.	.	.
=:	=:	=-	=-	=-	=-	=-	=-	=-	=-
4ryy	.	[4.F	.	2.c)	.	2.ryy	.	8gL])	.
.	.	.	.	.	.	.	.	(>8b	.
8ryy	.	.	.	.	.	.	.	8cc#XJ	.
=:	=:	=-	=-	=-	=-	=-	=-	=-	=-
8ryy	.	8FL]	.	.	.	.	.	8ddL	.
8ryy	.	8A-X	.	.	.	.	.	8een	.
8ryy	.	8B-XJ)	.	.	.	.	.	8ff#XJ)	.
=18	=18	=18	=18	=18	=18	=18	=18	=18	=18
*M12/8	*	*M12/8	*	*M12/8	*	*M12/8	*	*M12/8	*
8ryy	.	([4.F	.	(8c	.	4ryy	.	[4.gg	.
8ryy	.	.	.	4A	.	.	.	.	.
8ryy	.	.	.	.	.	8ryy	.	.	.
=:	=:	=-	=-	=-	=-	=-	=-	=-	=-
8ryy	.	8FL]	.	[4.e-X	.	4.ryy	.	8ggL]	.
4ryy	.	8A-X	.	.	.	.	.	(8b	.
.	.	8G-XJ)	.	.	.	.	.	8ddJ	.
=:	=:	=-	=-	=-	=-	=-	=-	=-	=-
4ryy	.	([2.F	.	2.e-_	.	4ryy	.	8eeL	.
.	.	.	.	.	.	.	.	8ff#X	.
8ryy	.	.	.	.	.	8ryy	.	8ggJ)	.
=:	=:	=-	=-	=-	=-	=-	=-	=-	=-
8ryy	.	.	.	.	.	4ryy	.	[4.aa	.
8ryy	.	.	.	.	.	.	.	.	.
8ryy	.	.	.	.	.	8ryy	.	.	.
!!linebreak:original
=19	=19	=19	=19	=19	=19	=19	=19	=19	=19
*M8/8	*	*M8/8	*	*M8/8	*	*M8/8	*	*M8/8	*
8ryy	.	4.F_	.	8e-L])	.	8ryy	.	4.aa]	.
8ryy	.	.	.	(8B	.	4ryy	.	.	.
8ryy	.	.	.	8c#XJ	.	.	.	.	.
=:	=:	=-	=-	=-	=-	=-	=-	=-	=-
8ryy	.	8FL]	.	8dL	.	8ryy	.	(8eeL	.
8ryy	.	8Gn	.	8en	.	8ryy	.	8ff#X	.
8ryy	.	8AnJ)	.	8fJ	.	8ryy	.	8gg#XJ	.
=:	=:	=-	=-	=-	=-	=-	=-	=-	=-
8ryy	.	([4F#X	.	[4e-X	.	8ryy	.	[4aa	.
8ryy	.	.	.	.	.	8ryy	.	.	.
!!LO:REH:t=20
=20	=20	=20	=20	=20	=20	=20	=20	=20	=20
*M7/8	*	*M7/8	*	*M7/8	*	*M7/8	*	*M7/8	*
4ryy	.	4.F#]	.	8e-L]	.	2ryy	.	4.aa]	.
.	.	.	.	8a-X)J	.	.	.	.	.
8ryy	.	.	.	[4f	.	.	.	.	.
8ryy	.	8c	.	.	.	.	.	8bb-X	.
=:	=:	=-	=-	=-	=-	=-	=-	=-	=-
8ryy	.	8B	.	4.f_	.	4ryy	.	[4.aa	.
4ryy	.	4e)	.	.	.	.	.	.	.
.	.	.	.	.	.	8ryy	.	.	.
=21	=21	=21	=21	=21	=21	=21	=21	=21	=21
*M10/8	*	*M10/8	*	*M10/8	*	*M10/8	*	*M10/8	*
1ryy	.	[4.c#X	.	4.f_	.	4ryy	.	8aaL])	.
.	.	.	.	.	.	.	.	(8ee	.
.	.	.	.	.	.	8ryy	.	8ff#X	.
.	.	4c#]	.	4f_	.	8ryy	.	8cc	.
.	.	.	.	.	.	8ryy	.	8eeJ)	.
.	.	(8cnL	.	8fL]	.	4.ryy	.	(>[4.a	.
.	.	8B	.	(8d	.	.	.	.	.
.	.	8c#X	.	8e	.	.	.	.	.
4ryy	.	8G#X	.	8B	.	4ryy	.	4a_	.
.	.	8FnJ)	.	8G#XJ)	.	.	.	.	.
!!pagebreak:original
=22	=22	=22	=22	=22	=22	=22	=22	=22	=22
*M8/8	*	*M8/8	*	*M8/8	*	*M8/8	*	*M8/8	*
8ryy	.	4.E	.	[2c#X	.	2..ryy	.	1a_	.
8ryy	.	.	.	.	.	.	.	.	.
8ryy	.	.	.	.	.	.	.	.	.
8ryy	.	(8Gn	.	.	.	.	.	.	.
2ryy	.	8D	.	8c#]	.	.	.	.	.
.	.	4D-X	.	(8eL	.	.	.	.	.
.	.	.	.	8B	.	.	.	.	.
.	.	[8C	.	[8G#XJ	.	8ryy	.	.	.
=23	=23	=23	=23	=23	=23	=23	=23	=23	=23
*M5/8	*	*M5/8	*	*M5/8	*	*M5/8	*	*M5/8	*
4.ryy	.	4C])	.	8G#L]	.	4ryy	.	8aL]	.
.	.	.	.	16GnL	.	.	.	8b-X)	.
.	.	.	.	16AJJ)	.	.	.	.	.
.	.	4r	.	([4.A#X	.	4.ryy	.	(8dd	.
16ryy	.	.	.	.	.	.	.	>8a	.
16ryy	.	.	.	.	.	.	.	.	.
8ryy	.	(8c~	.	.	.	.	.	[8f#XJ	.
=24	=24	=24	=24	=24	=24	=24	=24	=24	=24
*M6/8	*	*M6/8	*	*M6/8	*	*M6/8	*	*M6/8	*
4.ryy	.	8G	.	4A#]	.	4ryy	.	4f#]	.
.	.	4E	.	.	.	.	.	.	.
.	.	.	.	8G#X	.	8ryy	.	8b-X)	.
4ryy	.	4E-X)	.	16GnLL	.	8ryy	.	(8ddLi	.
.	.	.	.	16AnJJ)	.	.	.	.	.
.	.	.	.	([4A#Xi	.	4ryy	.	8a	.
16ryy	.	[8c~	.	.	.	.	.	[8f#XJ	.
16ryy	.	.	.	.	.	.	.	.	.
=	=	=	=	=	=	=	=	=	=
*-	*-	*-	*-	*-	*-	*-	*-	*-	*-
!!!system-decoration: [(s1,s2,s3,s4,s5)]
!!!RDF**kern: > = above
!!!RDF**kern: < = below
!!!EED: Daniel Wright
!!!EEV: 2021/07/14
!!!EED2: Jason Lee
!!!EEV2: 2022/01/30
!!!RDF**kern: i = marked note, color="hotpink", text="extra("
!!!RDF**kern: j = marked note, color="magenta", text="extra)"
